!!!OTL: SITZT EIN SCHOENS VOEGEL IM TANNENWALD
!!!ARE: Europa, Mitteleuropa, Deutschland, Bergisches Land
!!!SCT: E1575A
!!!YEM: Copyright 1995, estate of Helmut Schaffrath.
**kern
*ICvox
*Ivox
*M3/4
*k[b-]
*F:
=1
{4a
4a
4a
=2
4.cc
8b-
4a
=3
4cc
4ff
4cc}
=4
{4a
4a
4a
=5
4.cc
8b-
4a
=6
2cc
4r}
=7
{4cc
4ff
4a
=8
4cc
4b-
4b-
=9
4b-
4dd
4g
=10
4b-
4a
4a}
=11
{4a
4a
4a
=12
4.cc
8b-
4a
=13
4cc
4ff
4cc}
=14
{4a
4a
4a
=15
4.cc
8b-
4b-
=16
2a
4r}
=17
{4cc
4ff
4a
=18
4cc
4b-
4b-
=19
4b-
4dd
4g
=20
4b-
4a
4a}
=21
{4a
4a
4a
=22
4.cc
8b-
4a
=23
4cc
4ff
4cc}
=24
{4a
4a
4a
=25
4.cc
8b-
4b-
=26
2a
4r}
==
!!!AGN: Staende - Lied, Fuhrmann
!!!ONB: ESAC (Essen Associative Code) Database: ERK3
!!!AMT: simple triple
!!!AIN: vox
!!!EED: Helmut Schaffrath
!!!EEV: 1.0
*-
